X:1
T:James Gibb editions
T:Iste sanctus pro lege Dei - Foggia
T:#
%%score [ 1 2 3 ] 4
L:1/8
Q:1/4=88
M:4/4
K:F
V:1 treble nm="Alto" snm="A"
V:2 treble-8 nm="Tenor" snm="T"
V:3 bass nm="Bass" snm="B"
V:4 bass nm="Organ"
V:1
"^Francesco Foggia\n(1603-88)""^Iste sanctus pro lege Dei" F3 F D4 | C2 z C DEFD | C4 F4 | %3
w: Is- te san-|ctus pro le- ge De- i|su- i|
 z2 G2 (CD/E/ F/G/E/F/ |[M:4/4] DE/F/ G/A/F/G/ EF/G/ A/B/G/A/- | F2) B,2 z2 G2- | G2 F4 E2 | %7
w: cer- ta\- * * * * * *||* vit us\-|* que ad|
 D4 E2 F2- | F2 EG D4 | x8 | E4 z2 z C | DEFD E4 | F4 C3 C | A,4 G,2 z G, | A,B,CA, =B,4 | %15
w: mor- tem, us\-|* que ad mor-||tem, pro|le- ge De- i su\--|i, Is- te|~san- ctus pro|le- ge De- i su-|
 C2 z C DEFD | E2 A,A, =B,CD!courtesy!=B, | C2 CE FGAF | G4 C2 z C | DEFD _E4- | E4 D2 z F | %21
w: i, pro le- ge De- i|su- i, pro le- ge De- i|su- i, pro le- ge De- i|su- i, pro|le- ge De- i su\-|* i cer-|
 F2 FG F2 F2 | z2 G2 (CD/E/ F/G/E/F/ | DE/F/ G/A/F/G/ EF/G/ A/B/G/A/ | x8 | x8 | F2 D2) z2 G2- | %27
w: ta- vit, cer- ta- vit,|cer- ta\- * * * * * *||||* vit us\-|
 G2 F4 E2 | D4 E2 F2- | F2 _ED D4 | C8 | z2 G4 F2 | x8 | E2 (F4 E2) | F8 | z8 | z4 G3 F | %37
w: * que ad|mor- tem, us\-|* que ad mor-|tem,|us- que||ad mor\- *|tem.||Et a|
 G2 C2 B,A, B,2 | A,2 C3 C D2- | x8 | x8 | DB, C4 D2 | _E6 D2 | z4 G3 G | A2 F2 F2 E2 | D4 C4 | %46
w: ver- bis im- pi- o-|rum, et a ver\-|||* bis im- pi-|o- rum,|Et a|ver- bis im- pi-|o- rum|
 z4 z2 D2 | (E2 F4) E2 | F4 z4 | G3 G A2 F2 | F2 E2 D4 | E2 C3 C D2- | DB, C4 D2 | _E4 DF (G2- | %54
w: non|ti\- * mu-|it,|Et a ver- bis|im- pi- o-|rum, Et a ver\-|* bis im- pi-|o- rum non ti\-|
 x2 x2 x2 x2 | G)F F4 E2 | F8 | z2 FE DC D2 | E2 ED C3 C | D4 C2 F2- | FEDF _EDED | CB, (B,4 A,2) | %62
w: |* * * mu-|it.|Su- pra ~fir- mam pe-|tram, su- pra fir- mam|pe- tram, su\-|* pra fir- mam pe- tram, su- pra|fir- mam pe\- *|
 B,4 F4 | x8 | G4 E4 | F4 D4 | F4 C4 | z4 z2 BA | GF G2 A2 AG | FE F2 G4 | DCDB, CF, F2- | %71
w: tram. Fun-||da- tus|e- nim|e- rat|su- pra|fir- mam pe- tram, su- pra|fir- mam pe- tram,|su- pra fir- mam pe- tram, su\-|
 FEDC D4 | C2 GF EDEC | F3 E DC D2 | x8 | x8 | E2 ED CB, C2 | D4 C3 F, | G,2 A,2 G,4 | %79
w: * pra fir- mam pe-|tram, su- pra fir- mam pe- tram,|su- pra fir- mam pe-|||tram, su- pra fir- mam pe-|tram, su- pra|fir- mam pe-|
 C2 GF ED E2 | x8 | F2 FE DC D2 | E2 ED C3 F | D4 C2 F2- | FE D2 F2 G2- | GFED EA, A2- | %86
w: tram, su- pra fir- mam pe-||tram, su- pra fir- mam pe-|~tram, su- pra fir- mam|pe- tram, su\-|* pra fir- mam, su\-|* pra fir- mam pe- tram, su\-|
 AGFE FFGF | EE (F4 E2) | F2[Q:1/4=86] F3[Q:1/4=84] E[Q:1/4=83] D2 | %89
w: * pra fir- mam pe- tram, su- pra|fir- mam pe\- *|tram, su- pra fir-|
[Q:1/4=81] E2[Q:1/4=79] (F4[Q:1/4=76] E2) |[Q:1/4=76] !fermata!F8 |] %91
w: mam pe\- *|tram.|
V:2
 z8 | z8 | c3 c A4 | G2 z G ABcA |[M:4/4][K:treble-8] =B4 c4 | z2 d2 (GA/B/ c/d/B/c/ | %6
w: ||Is- te san-|ctus pro le- ge De- i|su- i|cer- ta\- * * * * * *|
 AB/c/ d/e/c/d/ =B2) c2 | z2 d4 c2 | =B2 c4 B2 | x8 | c3 c A4 | F4 c3 c | A4 G2 z C | DEFD E2 CE | %14
w: * * * * * * * * vit|us- que|ad mor- tem,||Is- te san-|ctus, Is- te|san- ctus pro|le- ge De- i su- i, pro|
 ^FGAF G2 G2 | F3 F D4 | C2 z c defd | eecc A4 | G2 z G ABcA | (B6 A2) | B4 z2 z d | d2 d_e d2 Bd | %22
w: le- ge De- i su- i,|Is- te san-|ctus pro le- ge De- i|su- i, Is- te san-|ctus pro le- ge De- i|su\- *|i cer-|ta- vit, cer- ta- vit, cer-|
 (GA/B/ c/d/B/c/ AB/c/ d/e/c/d/ | =B2) B2 z2 c2 | x8 | x8 | (FG/A/ B/c/A/B/ GA/B/ c/d/B/c/ | %27
w: ta\- * * * * * * * * * * * * *|* vit, cer-|||ta\- * * * * * * * * * * * * *|
 A2) Ac =B2 c2 | z2 d4 c2 | =B2 c4 !courtesy!=B2 | z2 c4 _AB | x2 x2 x2 x2 | G4 A2 B2- | %33
w: * vit, cer- ta- vit|us- que|ad mor- tem,|us- que ad||mor- tem, us\-|
 B2 _Ac G4 | A8 | z8 | c3 c d2 B2 | B2 A2 G4 | F4 A3 A | x8 | x8 | B2 G2 AA (B2- | B2 A2) B4 | %43
w: * que ad mor-|tem.||Et a ver- bis|im- pi- o-|rum, et a|||ver- bis im- pi- o\-|* * rum|
 z2 A2 B3 B | A4 =B2 c2- | !tenuto!c2 =B2 c4 | z2 cc d2 B2 | B2 A2 G4 | F3 D (E2 F2- | %49
w: non ti- mu-|it, non ti\-|* mu- it,|et a ver- bis|im- pi- o-|rum non ti\- *|
 F2) E2 F2 z A | (=B2 c4) B2 |"^S" c4 z2 A2 | B2 G2 AA B2- | B2 A2 B4 | A4 G3 G | A4 c4 | d4 B4 | %57
w: * mu- it, non|ti\- * mu-|it, non|ti- mu- it, non ti\-|* mu- it,|non ti- mu-|it. Fun-|da- tus|
 c4 A4 | B4 F4 | x8 | d3 c BABA | G3 F _ED E2 | F2 f_e dc d2 | x8 | d2 ed cAcB | AB c4 B2 | %66
w: e- nim|e- rat||su- pra fir- mam pe- tram,|su- pra fir- mam pe-|tram, su- pra fir- mam pe-||tram, su- pra fir- mam pe- tram,|su- pra fir- mam|
 (AF B4) A2 | f_edc d2 d2 | z2 !courtesy!=ed cB c2 |"^S" d2 dc BA B2 | B,2 B4 A2 | %71
w: pe\- * * tram,|su- pra fir- mam pe- tram,|su- pra fir- mam pe-|tram, su- pra fir- mam pe-|tram, su- pra|
 =BB (c4 !courtesy!=B2) | c4 z2 c2 | d4 B4 | x8 | x8 | c4 A4 | B4 F2 f2- | fedc d4 | c4 z2 cB | %80
w: fir- mam pe\- *|tram. Fun-|da- tus|||e- nim|e- rat su\-|* pra fir- mam pe-|tra, su- pra|
 x2 x2 x2 x2 | AG A2 B2 BA | GF G2 A2 c2- | cB B4 A2 | d2 z c B2 d2 | (^c2 d4 !courtesy!^c2) | %86
w: |fir- mam pe- tram, su- pra|fir- mam, su- pra fir\-|* mam pe- tram,|su- pra fir- mam|pe\- * *|
 d4 z2 B2- | BAGF GC c2- | cBAG AA B2- | BAGF G4 | !fermata!F8 |] %91
w: tram su\-|* pra fir- mam pe- tram, su\-|* pra fir- mam pe- tram, su\-|* pra fir- mam pe-|tram.|
V:3
 z8 | F,3 F, D,4 | C,3 C, D,E,F,D, | E,4 F,4 |[M:4/4] z2 G,2 (C,D,/E,/ F,/G,/E,/F,/ | x2 x2 x2 x2 | %6
w: |Is- te san-|ctus pro le- ge De- i|su- i|cer- ta\- * * * * * *||
 D,E,/F,/ G,/A,/F,/)G,/ E,4 | F,4 z2 C2- | C2 B,4 A,2 | G,8 | C,4 F,3 F, | D,4 C,3 C, | %12
w: |vit us\-|* que ad|mor-|tem, Is- te|san- ctus pro|
 D,E,F,D, E,4 | F,4 C,3 C, | A,,4 G,,3 G, | A,B,CA, =B,4 | C2 F,F, D,4 | C,3 C, D,E,F,D, | %18
w: le- ge De- i su-|i, Is- te|san- tus pro|le- ge De- i su-|i, Is- te san-|tus pro le- ge De- i|
 E,4 F,2 z F,, | B,,C,D,B,, C,4 | B,,4 z2 B,2 | B,2 B,_E, B,2 B,2 | z8 | %23
w: su- i, pro|le- ge De- i su-|i cer-|ta- vit, cer- ta- vit,||
 z2 G,2 (C,D,/E,/ F,/G,/E,/F,/ | x2 x2 x2 x2 | x8 | D,E,/F,/ G,/A,/F,/G,/ E,4) | F,4 z2 C2- | %28
w: cer- ta\- * * * * * *||||vit us\-|
 C2 B,4 _A,2 | G,8 | C,4 z2 F,2- | x2 x2 x2 x2 | F,2 _E,4 _D,2 | C,8 | F,,4 F,3 F, | x2 x2 x2 x2 | %36
w: * que ad|mor-|tem, us\-||* que ad|mor-|tem. Et a||
 G,2 _E,2 E,2 D,2 | x2 x2 x2 x2 | C,4 B,,2 D,2 | (E,2 F,4) E,2 | F,4 F,3 F, | G,2 _E,2 E,2 D,2 | %42
w: ver- bis im- pi-||o- rum non|ti\- * mu-|it, et a|ver- bis im- pi-|
 C,4 B,,2 D,2 | (E,2 F,4) E,2 | F,4 z4 | G,3 G, A,2 F,2 | F,2 E,2 D,4 | C,4 z2 C,C, | %48
w: o- rum non|ti\- * mu-|it,|Et a ver- bis|im- pi- o-|rum et a|
 D,2 B,,2 B,,2 A,,2 | G,,4 F,,4 | z2 E,2 G,3 G, | C,4 F,3 F, | G,2 _E,2 E,2 D,2 | C,4 B,,2 z B,, | %54
w: ver- bis im- pi-|o- rum|non ti- mu-|it, Et a|ver- bis im- pi-|o- rum non|
 x2 x2 x2 x2 | C,6 C,2 | F,,8 | F,4 F,4 | E,4 F,4 | D,2 B,4 A,2 | B,3 A, G,F,G,F, | %61
w: |ti- mu-|it.|Fun- da-|tus e-|nim e- rat|su- pra fir- mam pe- tram,|
 _E,3 D, C,B,, C,2 | B,,4 z2 B,A, | x2 x2 x2 x2 | G,F,G,G, A,3 G, | F,4 G,4 | (D,3 E, F,4) | %67
w: su- pra fir- mam pe-|tram, su- pra||fir- mam pe- tram, su- pra|fir- mam|pe\- * *|
 B,,4 B,4 | C4 A,4 | B,4 G,4 | B,4 F,4 | z4 z2 G,F, | x2 x2 x2 x2 | E,D, E,2 C,4 | z4 z2 G,F, | %75
w: tram. Fun-|da- tus|e- nim|e- rat|su- pra||fir- mam pe- tram,|su- pra|
 x2 x2 x2 x2 | E,D, E,2 F,2 F,E, | D,B,, B,4 A,2 | =B,B, (C4 B,2) | C4 C,4 | x8 | D,4 B,,4 | %82
w: |fir- mam pe- tram, su- pra|fir- mam, su- pra|fir- mam pe\- *|tram. Fun-||da- tus|
 C,4 A,,4 | B,,4 F,,4 | z2 B,3 A,G,G, | A,4 A,,4 | D,3 C, B,,A,, B,,2 | C,8 | F,3 E, D,C, D,2 | %89
w: e- nim|e- rat|su- pra fir- mam|pe- tram,|su- pra fir- mam pe-|tram,|su- pra fir- mam pe-|
 C,2 D,D, C,B,, C,2 | !fermata!F,,8 |] %91
w: tram, su- pra fir- mam pe-|tram.|
V:4
 z8 | F,3 F, D,4 | C,3 C, D,E,F,D, | E,4 F,4 |[M:4/4] G,4 C,2 F,2 | D,2 G,2 E,4 | F,4 G,2 C2- | %7
w: ||||||9~~~~~~~~8 * *|
w: ||||||* 7 *|
 C2 B,4 A,2 | G,8 | x8 | C,4 F,3 F, | D,4 C,3 C, | D,E,F,D, E,2 C,2 | C,4 C,3 C, | A,,4 G,,3 G, | %15
w: ||||||||
w: ||||||||
 F,4 D,4 | C,2 F,2 D,4 | C,3 C, D,E,F,D, | E,4 F,3 F,, | B,,C,D,B,, C,4 | B,,8 | B,2 B,_E, B,4 | %22
w: |||||||
w: |||||||
 _E,2 =E,2 F,2 F,2 | x2 x2 x2 x2 | G,4 C,2 F,2 | x2 x2 x2 x2 | D,2 G,2 E,4 | F,4 G,2 C2- | %28
w: ||||||
w: ||||||
 C2 B,4 _A,2 | G,8 | C,4 C,2 F,2- | x2 x2 x2 x2 | F,2 _E,4 _D,2 | C,8 | F,,4 F,3 F, | x2 x2 x2 x2 | %36
w: ||||||||
w: ||||||||
 G,2 _E,2 E,2 D,2 | x2 x2 x2 x2 | C,4 B,,2 D,2 | E,2 F,4 E,2 | F,4 F,3 F, | G,2 _E,2 E,2 D,2 | %42
w: ||||||
w: ||||||
 C,4 B,,4 | C,2 F,4 E,2 | F,4 G,2 C,2 | G,4 A,2 F,2 | F,2 E,2 D,4 | C,2 F,,2 C,4 | %48
w: ||||||
w: ||||||
 D,2 B,,2 B,,2 A,,2 | G,,4 F,,4 | G,,2 E,,2 G,,4 | C,4 F,4 | G,2 _E,2 E,2 D,2 | C,4 B,,3 B,, | %54
w: ||||||
w: ||||||
 x2 x2 x2 x2 | C,6 C,2 | F,,8 | F,4 F,4 | E,4 F,4 | D,2 B,,2 F,4 | B,,2 B,A, G,F,G,F, | %61
w: |||||||
w: |||||||
 _E,3 D, C,B,, C,2 | B,,4 B,3 A, | x2 x2 x2 x2 | G,F, G,2 A,3 G, | F,4 G,4 | D,3 E, F,4 | %67
w: ||||||
w: ||||||
 B,,4 B,4 | C4 A,4 | B,4 G,4 | B,4 F,4 | G,2 C,2 G,4 | C,8 | D,4 G,3 F, | x2 x2 x2 x2 | x8 | %76
w: |||||||||
w: |||||||||
 E,D, E,2 F,3 E, | D,2 B,,2 F,4 | G,2 A,2 G,4 | C,4 C,4 | x8 | D,4 B,,4 | C,4 A,,4 | B,,4 F,4 | %84
w: ||||||||
w: ||||||||
 B,,2 B,3 A, G,2 | A,8 | D,3 C, B,,A,, B,,2 | C,8 | F,3 E, D,C, D,2 | C,2 D,2 C,B,, C,2 | %90
w: ||||||
w: ||||||
 !fermata!F,,8 |] %91
w: |
w: |

